X:1
%%scale 0.6
M:4/4
K:Dmaj
|:(3ABc|dA FA DF Ad|fd cd Ad fd|cd ef gf ga|fd cd BG FE|
(3FGA (3FGA DF Ad|fd cd Ad fd|cd ef gb ag|1(3fed (3cde d2:||2fd ce d2
|:cd|ec Ac ec Ac|ec Ac ec fc|fd Bd fd Bd|fd Bd fd Bd|Bd cB BG FE|
(3FGA (3FGA DF Ad|fd cd fd fd|cd ef gb ag|1(3fed ce d2:||2(3fed ce d2|